src/WeatherTwentyOne/Resources/Images/sm_solid_umbrella.svg

<svg width="10" height="10" viewBox="0 0 10 10" fill="none" xmlns="http://www.w3.org/2000/svg">
<path d="M9.99445 4.93929C9.79372 3.82459 9.23013 2.80752 8.3914 2.04636C7.55267 1.28521 6.48584 0.82266 5.35695 0.730714V0H4.64267V0.730714C3.51378 0.82266 2.44696 1.28521 1.60822 2.04636C0.769491 2.80752 0.205901 3.82459 0.00516876 4.93929C-0.00639027 5.00649 0.00153115 5.0756 0.0279969 5.13844C0.0544627 5.20128 0.0983664 5.25524 0.154519 5.29393C0.210672 5.33261 0.276726 5.35442 0.344876 5.35676C0.413025 5.3591 0.480421 5.34188 0.539097 5.30714C0.801554 5.12476 1.10931 5.01847 1.42838 5C1.73164 5.00735 2.0277 5.09396 2.2871 5.25123C2.5465 5.4085 2.7602 5.63094 2.90695 5.89643C2.94101 5.94652 2.98681 5.98751 3.04034 6.01585C3.09388 6.04418 3.15353 6.059 3.2141 6.059C3.27467 6.059 3.33432 6.04418 3.38785 6.01585C3.44139 5.98751 3.48718 5.94652 3.52124 5.89643C3.64103 5.68617 3.80214 5.50235 3.99487 5.35602C4.1876 5.20969 4.40796 5.10389 4.64267 5.045V8.39286C4.64267 8.62966 4.5486 8.85676 4.38116 9.0242C4.21371 9.19165 3.98661 9.28571 3.74981 9.28571C3.51301 9.28571 3.28591 9.19165 3.11847 9.0242C2.95102 8.85676 2.85695 8.62966 2.85695 8.39286V8.21429H2.14267V8.39286C2.14267 8.8191 2.31199 9.22788 2.61339 9.52928C2.91479 9.83068 3.32357 10 3.74981 10C4.17605 10 4.58484 9.83068 4.88623 9.52928C5.18763 9.22788 5.35695 8.8191 5.35695 8.39286V5.04464C5.59172 5.10362 5.81212 5.20953 6.00485 5.35598C6.19759 5.50243 6.35867 5.6864 6.47838 5.89679C6.51001 5.95008 6.55495 5.99423 6.6088 6.02489C6.66265 6.05556 6.72356 6.07168 6.78553 6.07168C6.8475 6.07168 6.9084 6.05556 6.96225 6.02489C7.0161 5.99423 7.06105 5.95008 7.09267 5.89679C7.23938 5.63123 7.45306 5.40872 7.71246 5.25138C7.97187 5.09405 8.26794 5.00738 8.57124 5C8.89031 5.01847 9.19807 5.12476 9.46053 5.30714C9.51921 5.34199 9.58665 5.35929 9.65486 5.357C9.72307 5.35471 9.7892 5.33293 9.84541 5.29423C9.90162 5.25552 9.94557 5.20152 9.97205 5.13862C9.99853 5.07571 10.0064 5.00654 9.99481 4.93929H9.99445ZM1.42838 4.28571C1.24677 4.28571 1.06606 4.31132 0.891597 4.36179C1.13404 3.68648 1.53642 3.07993 2.06433 2.594C2.59224 2.10806 3.22998 1.75721 3.92303 1.57143C3.21508 2.48411 2.83222 3.60708 2.83517 4.76214C2.43052 4.45459 1.93664 4.28733 1.42838 4.28571ZM4.99981 4.28571C4.47325 4.28814 3.96289 4.46808 3.55124 4.79643C3.56445 4.00357 3.76838 2.47857 4.99981 1.51929C6.22481 2.47536 6.4316 4.00143 6.44695 4.79536C6.03554 4.46769 5.52576 4.28816 4.99981 4.28571ZM8.57124 4.28571C8.06302 4.28723 7.56915 4.45436 7.16445 4.76179C7.16741 3.60672 6.78454 2.48376 6.0766 1.57107C6.76968 1.75689 7.40744 2.1078 7.93536 2.59379C8.46327 3.07979 8.86563 3.68641 9.10803 4.36179C8.93356 4.31132 8.75286 4.28571 8.57124 4.28571Z" fill="#91A7B7"/>
</svg>

<svg width="10" height="10" fill="none" xmlns="http://www.w3.org/2000/svg">
    <path
        d="M9.994 4.94A5.136 5.136 0 005.357.73V0h-.714v.73A5.136 5.136 0 00.005 4.94a.357.357 0 00.534.367c.263-.182.57-.289.89-.307a1.738 1.738 0 011.478.896.371.371 0 00.614 0 1.793 1.793 0 011.122-.851v3.348a.893.893 0 01-1.786 0v-.179h-.714v.179a1.607 1.607 0 103.214 0V5.045a1.793 1.793 0 011.121.852.357.357 0 00.615 0A1.738 1.738 0 018.57 5c.32.018.627.125.89.307a.357.357 0 00.534-.368zm-8.566-.654c-.181 0-.362.025-.536.076a4.443 4.443 0 013.031-2.79 5.184 5.184 0 00-1.088 3.19 2.337 2.337 0 00-1.407-.476zm3.572 0a2.34 2.34 0 00-1.449.51C3.564 4.004 3.768 2.48 5 1.52c1.225.956 1.432 2.482 1.447 3.276A2.34 2.34 0 005 4.285zm3.571 0a2.337 2.337 0 00-1.407.476 5.184 5.184 0 00-1.087-3.19 4.443 4.443 0 013.031 2.79 1.932 1.932 0 00-.537-.076z"
        fill="#91A7B7" />
</svg>
